X:1
T:Litany for Those at Sea (Part 2), 77.77.6
T:Charles Edward Stephens (1821-1891)
T:Litany for Those at Sea (Part 2), 77.77.6
T:Public Domain
C:Charles Edward Stephens (1821-1891)
Z:Public Domain
%%score ( 1 2 ) 3
L:1/8
M:4/4
K:G
V:1 treble 
V:2 treble 
V:3 bass 
V:1
 [B,D]3 [B,D] [CE]2 [B,D]2 | [CE]2 [DF]2 [DG]4 | [^CA]3 [CA] [DB]2 [B,G]2 | B2 z C [B,G]4 | %4
 [CE]3 [CE] [C=F]2 [CE]2 | [DF]2 [E^G]2 [EA]4 | [^DB]3 [DB] [Ec]2 [CA]2 | c2 z D [CA]4 | %8
 [Ce]3 [Dd] [Ec]2 E2 | (D2 C2) [B,G]4 |] %10
V:2
 x8 | x8 | x8 | D3 A2 x3 | x8 | x8 | x8 | E3 B2 x3 | x6 E2 | F4 x4 |] %10
V:3
 [G,,G,]3 [G,,G,] [C,G,]2 [G,,G,]2 | [C,G,]2 [C,A,]2 [B,,G,]4 | [A,,G,]3 [A,,G,] [D,G,]2 [E,G,]2 | %3
 [D,G,]2 [D,F,]2 [G,,G,]4 | [C,G,]3 [C,G,] [C,A,]2 [C,G,]2 | [B,,B,]2 [E,B,]2 [C,A,]4 | %6
 [B,,A,]3 [B,,A,] [E,A,]2 [=F,A,]2 | [E,A,]2 [E,^G,]2 [A,,A,]4 | [A,,F,]3 [B,,^G,] [C,A,]2 [C,C]2 | %9
 [D,A,]4 [G,,G,]4 |] %10

